assets/Chair/Flat/chair_flat.svg

<svg width="32" height="32" viewBox="0 0 32 32" fill="none" xmlns="http://www.w3.org/2000/svg">
<path d="M13 8H11V15H13V8Z" fill="#7D4533"/>
<path d="M21 8H19V15H21V8Z" fill="#7D4533"/>
<path d="M6.79089 28.3796L8.36926 20.5854H11.1907L8.59622 28.3796C7.8395 30.8443 6.499 29.8606 6.79089 28.3796Z" fill="#7D4533"/>
<path d="M23.6307 20.5854L25.2091 28.3796C25.501 29.8606 24.1605 30.8443 23.4038 28.3796L20.8093 20.5854H23.6307Z" fill="#7D4533"/>
<path d="M11.0009 20.5953L11.1221 25.9824C11.1659 27.515 12.4155 27.3156 12.4732 25.9824L13.0102 20.5953H11.0009Z" fill="#402A32"/>
<path d="M21 20.5953L20.8788 25.9824C20.8349 27.515 19.5854 27.3156 19.5276 25.9824L18.9907 20.5953H21Z" fill="#402A32"/>
<path d="M11 3C9.89543 3 9 3.89543 9 5V6C9 7.65685 10.3431 9 12 9H20C21.6569 9 23 7.65685 23 6V5C23 3.89543 22.1046 3 21 3H11Z" fill="#A56953"/>
<path d="M11 14C9 14 7 17.5 7 19.25C7 20.2165 7.7835 21 8.75 21H23.25C24.2165 21 25 20.2165 25 19.25C25 17.5 23 14 21 14H11Z" fill="#A56953"/>
</svg>

<svg xmlns="http://www.w3.org/2000/svg" width="32" height="32" fill="none"><path fill="#7D4533" d="M13 8h-2v7h2V8ZM21 8h-2v7h2V8ZM6.79 28.38l1.58-7.795h2.82L8.597 28.38c-.756 2.464-2.097 1.48-1.805 0ZM23.63 20.585l1.58 7.795c.291 1.48-1.05 2.464-1.806 0l-2.595-7.795h2.822Z"/><path fill="#402A32" d="m11 20.595.122 5.387c.044 1.533 1.293 1.334 1.351 0l.537-5.387H11ZM21 20.595l-.121 5.387c-.044 1.533-1.294 1.334-1.351 0l-.537-5.387H21Z"/><path fill="#A56953" d="M11 3a2 2 0 0 0-2 2v1a3 3 0 0 0 3 3h8a3 3 0 0 0 3-3V5a2 2 0 0 0-2-2H11ZM11 14c-2 0-4 3.5-4 5.25 0 .966.784 1.75 1.75 1.75h14.5A1.75 1.75 0 0 0 25 19.25C25 17.5 23 14 21 14H11Z"/></svg>
